svgs/sadapay.svg

<svg width="192" height="192" viewBox="0 0 192 192" fill="none" xmlns="http://www.w3.org/2000/svg">
<path d="M118.567 146.208L145.683 119.092C159.113 105.662 159.113 83.8884 145.683 70.4586M69.9338 97.5745L97.0496 70.4586C110.479 57.0288 132.253 57.0288 145.683 70.4586M145.683 70.4586L97.2246 22" stroke="black" stroke-width="12" stroke-linecap="round" stroke-linejoin="round"/>
<path d="M73.4326 45.792L46.3168 72.9078C32.887 86.3376 32.887 108.112 46.3168 121.541M122.066 94.4256L94.9504 121.541C81.5206 134.971 59.7466 134.971 46.3168 121.541M46.3168 121.541L94.7754 170" stroke="black" stroke-width="12" stroke-linecap="round" stroke-linejoin="round"/>
</svg>

<svg width="192" height="192" viewBox="0 0 192 192" fill="none" xmlns="http://www.w3.org/2000/svg"><path d="m118.567 146.208 27.116-27.116c13.43-13.43 13.43-35.204 0-48.633m-75.75 27.115L97.05 70.46c13.429-13.43 35.203-13.43 48.633 0m0 0L97.225 22M73.433 45.792 46.317 72.908c-13.43 13.43-13.43 35.204 0 48.633m75.749-27.115L94.95 121.54c-13.43 13.43-35.203 13.43-48.633 0m0 0L94.775 170" stroke="#000" stroke-width="12" stroke-linecap="round" stroke-linejoin="round"/></svg>
